X: 13152
T: First Month Of Summer, The
R: reel
M: 4/4
K: Amajor
|B||AFF2 E2CE|A,ECE d2cB|AFF2 E2CE|A,ECE A4|
ABAF E2CE|A,ECE d2cB|AFF2 E2CE|A,ECE A3c||
ecc2 ecBc|ecc2 f3a|ecc2 ecef|c2BA FAA2|
ecc2 ecBc|ecc2 f3g|affe faec|dBBA BdcB||

